img/geometry.svg

<svg xmlns="http://www.w3.org/2000/svg" width="82.21465in" height="94.23235in" viewBox="0 0 5919.45513 6784.72942">
  <defs>
    <style>
      .cls-1 {
        fill: none;
        stroke: #f2f2f2;
        stroke-linejoin: round;
        stroke-width: 46.77589px;
      }
    </style>
  </defs>
  <title>Asset 3</title>
  <g id="Layer_2" data-name="Layer 2">
    <g id="Layer_1-2" data-name="Layer 1">
      <g>
        <polygon class="cls-1" points="23.388 1673.309 2833.663 23.388 5842.084 1526.765 3615.392 1022.775 2554.48 731.751 23.388 1673.309"/>
        <polyline class="cls-1" points="49.687 4897.014 45.851 4450.63 233.969 4595.428"/>
        <path class="cls-1" d="M2358.61236,3155.81072,3037.87374,3472.29,1976.07736,3445.8358H967.21449L23.38795,1673.30852,446.43367,4336.32535,45.85105,4450.6296,23.38795,1673.30852l2057.44456-68.27633,400.32966-6.51759,73.31795-866.7639,470.91774,831.89846-544.23569,34.86545L2358.61236,3155.81072,1145.2757,3862.98659,1475.9722,4334.982l1059.86955-17.66662L1986.2575,5244.3822l795.684,1516.95927L3967.97606,5303.65415,3037.87374,3472.29l483.07163-977.0875,609.8974,908.88682,537.45878,946.4488s1185.27832,764.6553,1226.35819,727.49051-830.74635-1593.063-830.74635-1593.063l-958.167-1868.24586-490.35421-593.94517L2833.66343,23.38795,2554.48011,731.75069,446.43367,4336.32535,233.96886,4595.42791,49.68721,4897.014,2781.94152,6761.34147,5894.65974,5078.0286,3967.97606,5303.65415l700.3255-953.11607,395.61184-865.57248L5842.08376,1526.765l-1736.33741,89.95471s-1124.50314-119.87667-1080.3485-53.0706,495.54752,931.55332,495.54752,931.55332l584.801-878.48272"/>
        <polygon class="cls-1" points="3037.874 3472.29 4668.302 4350.538 3490.505 4363.518 2535.842 4317.315 3037.874 3472.29"/>
        <polyline class="cls-1" points="3037.874 3472.29 4130.843 3404.089 5063.913 3484.966"/>
        <polyline class="cls-1" points="3967.976 5303.654 1986.257 5244.382 1475.972 4334.982 446.434 4336.325 1145.276 3862.987 967.214 3445.836"/>
        <polyline class="cls-1" points="446.434 4336.325 2781.942 6761.341 233.969 4595.428"/>
        <path class="cls-1" d="M49.68721,4897.014l756.644,169.10623s352.03818,68.15793,413.59441,73.34113S1986.2575,5244.3822,1986.2575,5244.3822"/>
        <line class="cls-1" x1="5842.08376" y1="1526.76504" x2="5894.65974" y2="5078.0286"/>
      </g>
    </g>
  </g>
</svg>

<svg xmlns="http://www.w3.org/2000/svg" width="82.215in" height="94.232in" viewBox="0 0 5919.45513 6784.72942"><defs><style>.cls-1 { fill: none; stroke: #f2f2f2; stroke-linejoin: round; stroke-width: 46.77589px; }</style></defs><title>Asset 3</title><g id="Layer_1-2"><path class="cls-1" d="M23.388 1673.309l2810.275-1649.921 3008.421 1503.377-2226.692-503.99-1060.912-291.024-2531.092 941.558zm26.299 3223.705l-3.836-446.384 188.118 144.798m2124.643-1439.617l679.261 316.479-1061.796-26.454h-1008.863l-943.827-1772.527 423.046 2663.017-400.583 114.304-22.463-2777.321 2057.445-68.276 400.33-6.518 73.318-866.764 470.918 831.898-544.236 34.865-122.55 1557.296-1213.337 707.176 330.697 471.995 1059.87-17.667-549.584 927.067 795.684 1516.959 1186.035-1457.687-930.102-1831.364 483.072-977.087 609.897 908.887 537.459 946.449s1185.278 764.655 1226.358 727.491l-830.746-1593.063-958.167-1868.246-490.354-593.945-781.729-999.387-279.183 708.363-2108.046 3604.575-212.465 259.103-184.282 301.586 2732.254 1864.327 3112.718-1683.313-1926.684 225.626 700.326-953.116 395.612-865.572 778.17-1958.201-1736.337 89.955s-1124.503-119.877-1080.349-53.071l495.548 931.553 584.801-878.483M3037.874 3472.29l1630.428 878.248-1177.797 12.98-954.663-46.203 502.032-845.025zm0 0l1092.969-68.201 933.07 80.877m-1095.937 1818.688l-1981.719-59.272-510.285-909.4-1029.538 1.343 698.842-473.338-178.062-417.151m-520.78 890.489l2335.508 2425.016-2547.973-2165.913m-184.282 301.586l756.644 169.106s352.038 68.158 413.594 73.341l766.332 104.921m3855.827-3717.617l52.576 3551.264"/></g></svg>
